icons/svg/commenting_20.svg

<svg width="20" height="20" xmlns="http://www.w3.org/2000/svg" xmlns:xlink="http://www.w3.org/1999/xlink"><defs><path d="M9.99 0C4.482.006.003 4.485 0 9.994v.01a9.96 9.96 0 001.241 4.804L.018 19.371a.5.5 0 00.128.483A.502.502 0 00.5 20a.485.485 0 00.13-.018l4.562-1.221A9.995 9.995 0 0010 20c5.515 0 10-4.486 10-10 0-5.512-4.481-9.994-9.992-10H9.99zM2.258 14.871a.502.502 0 00-.049-.381A8.99 8.99 0 011 10c0-4.963 4.038-9 9-9 4.963 0 9 4.037 9 9s-4.037 9-9 9a8.988 8.988 0 01-4.49-1.209.492.492 0 00-.25-.066.471.471 0 00-.129.017l-3.924 1.051 1.051-3.922zM13 10a.5.5 0 001 0 .5.5 0 00-1 0zm-3.5 0a.5.5 0 001 0 .5.5 0 00-1 0zM6 10a.5.5 0 001 0 .5.5 0 00-1 0z" id="a"/></defs><use fill="#171B1F" xlink:href="#a" fill-rule="evenodd"/></svg>

<?xml version="1.0" encoding="UTF-8"?>
<svg width="20px" height="20px" viewBox="0 0 20 20" version="1.1" xmlns="http://www.w3.org/2000/svg" xmlns:xlink="http://www.w3.org/1999/xlink">
    <!-- Generator: Sketch 59.1 (86144) - https://sketch.com -->
    <title>commenting_20</title>
    <desc>Created with Sketch.</desc>
    <defs>
        <path d="M9.99,0 C4.482,0.006 0.003,4.485 0,9.994 L0,9.994 L0,10.004 C0,11.678 0.428,13.334 1.241,14.808 L1.241,14.808 L0.018,19.371 C-0.028,19.543 0.02,19.728 0.146,19.854 L0.146,19.854 C0.242,19.949 0.369,20 0.5,20 L0.5,20 C0.543,20 0.587,19.994 0.63,19.982 L0.63,19.982 L5.192,18.761 C6.667,19.572 8.325,20 10,20 L10,20 C15.515,20 20,15.514 20,10 L20,10 C20,4.488 15.519,0.006 10.008,0 L10.008,0 L9.99,0 Z M2.258,14.871 C2.293,14.742 2.275,14.605 2.209,14.49 L2.209,14.49 C1.418,13.121 1,11.568 1,10 L1,10 C1,5.037 5.038,1 10,1 L10,1 C14.963,1 19,5.037 19,10 L19,10 C19,14.963 14.963,19 10,19 L10,19 C8.432,19 6.878,18.582 5.51,17.791 L5.51,17.791 C5.433,17.746 5.347,17.725 5.26,17.725 L5.26,17.725 C5.217,17.725 5.173,17.73 5.131,17.742 L5.131,17.742 L1.207,18.793 L2.258,14.871 Z M13,10 C13,10.276 13.224,10.5 13.5,10.5 L13.5,10.5 C13.776,10.5 14,10.276 14,10 L14,10 C14,9.724 13.776,9.5 13.5,9.5 L13.5,9.5 C13.224,9.5 13,9.724 13,10 L13,10 Z M9.5,10 C9.5,10.276 9.724,10.5 10,10.5 L10,10.5 C10.276,10.5 10.5,10.276 10.5,10 L10.5,10 C10.5,9.724 10.276,9.5 10,9.5 L10,9.5 C9.724,9.5 9.5,9.724 9.5,10 L9.5,10 Z M6,10 C6,10.276 6.224,10.5 6.5,10.5 L6.5,10.5 C6.776,10.5 7,10.276 7,10 L7,10 C7,9.724 6.776,9.5 6.5,9.5 L6.5,9.5 C6.224,9.5 6,9.724 6,10 L6,10 Z" id="path-1"></path>
    </defs>
    <g id="New-Icon" stroke="none" stroke-width="1" fill="none" fill-rule="evenodd">
        <g id="commenting_20">
            <mask id="mask-2" fill="white">
                <use xlink:href="#path-1"></use>
            </mask>
            <use id="fill" fill="#171B1F" xlink:href="#path-1"></use>
        </g>
    </g>
</svg>
